X:1
T:Title
%%score { ( 1 3 5 ) | ( 2 4 ) }
L:1/8
Q:1/4=110
M:4/4
K:C
V:1 treble nm="Grand Piano"
V:3 treble 
V:5 treble 
V:2 bass 
V:4 bass 
V:1
 E2 E2 [B,D]2 [A,C][B,D] | [CE]3 [DF] [EG]4 | [FA]2 [GB][Ac] [GB]2 [FA][GB] | G6 F2 | %4
w: from~F.~H.~Cowen * * * *||||
 E2 E2 [B,D]2 [A,C][B,D] | [CE]3 [DF] [EG]4 | [_EA]2 AB c2 B[EA] | d6 ed | B2 [Ec]B A2 BA | %9
w: |||||
 [G,B,G]2 z2 z4 | d4 A2 B2 | z4 G4 | G6 z2 | z4 G4[K:bass] | [Fd]4 [FA]2 [FB]2 | z4 G4 | %16
w: |||||||
 A2 AB c2 .[Ac]2 | [B,^Ge]8 | [^Ge]3 [Gd] [Gc]2 [GB]2 | [Gd]2 c2 B2 A2 | G4 [CEA]4 | %21
w: |||||
 [DFB]4 [CEc]4 | [Dc]->[D-Gc-] [D-Gc-]>[D-Gc-] [D-Gc-]>[D-Gc-] [D-Gc-]>[DGc] | %23
w: ||
 [FB]->[F-GB-] [F-GB-]>[F-GB-] [F-GB-]>[F-GB-] [F-GB-]>[FGB] | [EGc]6 z2 |] %25
w: ||
V:2
 [C,G,C]2 [C,G,C]2 [G,,G,]2 [G,,G,]2 | [C,G,]4 [C,C]4 | [F,C]2 [F,C]2 [F,C]2 [F,C]2 | %3
 [C,C]4 [B,,G,]4 | [C,G,C]2 [C,G,C]2 [G,,G,]2 [G,,G,]2 | [C,G,]4 [C,C]4 | %6
 [C,^F,]2 F,G, A,2 G,[C,F,] | [B,,G,]8 | [D,G,D]2 z D [D,^F,C]2 DC | %9
 z z/[K:treble] G/ G>G G>G G>G | F4 F2 F2 | E6 z2 | [F,D]4 F,2 F,2 | z2 z D [G,E]4 | %14
 [G,,G,]6 [G,,F,]2 | [C,E,]3 D, [E,G,]4 | [F,A,F]2 [F,A,F]2 [F,A,F]2 z[K:treble] d | z4 E,4 | %18
 [E,B,]3 [E,B,] [E,E]2 [E,D]2 | [E,C]2 [E,G,C]2 [F,CD]2 [^F,C_E]2 | [G,CE]4 G,,4 | G,,4 G,,4 | %22
 [G,,G,]8 | [G,,G,]8 | [C,G,]6 z2 |] %25
V:3
 x8 | x8 | x8 | E4 D4 | x8 | x8 | z2 _E2 E4 | D8 | x8 | x8 | x8 | c4 z2 C2 | z4 A,2 [B,D]2 | %13
 [CE]3 F z2[K:bass] C,2 | x8 | E6 z2 | x8 | E,4 z4 | x8 | x8 | x8 | x8 | G2 z2 z4 | G2 z2 z4 | %24
 x8 |] %25
V:4
 x8 | x8 | x8 | x8 | x8 | x8 | z2 C,2 C,4 | x8 | z2 [D,G,]2 z2 [D,^F,]2 | G,,2[K:treble] z2 z4 | %10
 x8 | x8 | x8 | E,6 z2 | x8 | x8 | z4 z2 [F,A,]2[K:treble] | E,,E,,^G,,B,, z B,,G,,E,, | x8 | x8 | %20
 x8 | x8 | x8 | x8 | x8 |] %25
V:5
 x8 | x8 | x8 | x8 | x8 | x8 | x8 | x8 | x8 | x8 | x8 | x8 | x8 | x6[K:bass] x2 | x8 | %15
 c3- [F,c] z2 C2 | x8 | x8 | x8 | x8 | x8 | x8 | x8 | x8 | x8 |] %25

